img/arrow-36.svg

<svg fill="none" height="11" viewBox="0 0 12 11" width="12" xmlns="http://www.w3.org/2000/svg"><path d="m11.9522 2.70366c.0812-.46048-.2263-.89959-.6868-.98078l-7.50386-1.323142c-.46048-.081194-.89959.226274-.98078.686752-.0812.46047.22627.89958.68675.98078l6.67009 1.17612-1.17609 6.67012c-.0812.46049.22627.89959.68675.98079.46044.0812.89954-.2263.98074-.6868zm-11.149223 6.04238c-.383019.26819-.476103.79611-.207911 1.17912.268193.38304.796104.47614 1.179124.20794zm9.829823-6.88292-9.829823 6.88292.971213 1.38706 9.82981-6.88294z" fill="#333"/></svg>

<svg width="12" height="11" viewBox="0 0 12 11" fill="none" xmlns="http://www.w3.org/2000/svg">
<path d="M11.9522 2.70366C12.0334 2.24318 11.7259 1.80407 11.2654 1.72288L3.76154 0.399738C3.30106 0.318544 2.86195 0.626012 2.78076 1.08649C2.69956 1.54696 3.00703 1.98607 3.46751 2.06727L10.1376 3.24339L8.96151 9.91351C8.88031 10.374 9.18778 10.8131 9.64826 10.8943C10.1087 10.9755 10.5478 10.668 10.629 10.2075L11.9522 2.70366ZM0.802977 8.74604C0.419958 9.01423 0.326874 9.54215 0.595066 9.92516C0.863259 10.3082 1.39117 10.4013 1.77419 10.1331L0.802977 8.74604ZM10.6328 1.86312L0.802977 8.74604L1.77419 10.1331L11.604 3.25016L10.6328 1.86312Z" fill="#333333"/>
</svg>
